img/advantages/03.svg

<svg width="60" height="64" viewBox="0 0 60 64" fill="none" xmlns="http://www.w3.org/2000/svg">
<path opacity="0.86" d="M35.5696 44.3466C35.5921 44.3831 35.6053 44.4226 35.6115 44.4653C35.6178 44.5072 35.6146 44.5491 35.6038 44.5902C35.5921 44.6313 35.5735 44.6693 35.5471 44.7027C35.5207 44.7361 35.4888 44.7632 35.4516 44.7842C32.4375 46.495 29.2891 47.9078 26.0071 49.0227C27.5401 50.7397 26.9639 58.9592 26.4754 63.7183C26.4715 63.7571 26.4614 63.7936 26.4435 63.8285C26.4257 63.8634 26.4024 63.8936 26.3736 63.92C26.3449 63.9456 26.3123 63.9658 26.2758 63.9798C26.2393 63.9937 26.2012 64.0007 26.1624 63.9999H26.1321C26.0886 63.9968 26.0482 63.9852 26.0102 63.965C25.9721 63.9449 25.9387 63.9177 25.9115 63.8843C25.8844 63.851 25.8649 63.8137 25.8533 63.7726C25.8409 63.7307 25.8378 63.6888 25.8424 63.6461C27.1805 50.5868 25.5582 49.4293 25.444 49.3571C25.371 49.3478 25.3089 49.316 25.2584 49.2632C23.4543 49.8676 21.616 50.3386 19.7444 50.6761C19.2815 50.7769 18.814 50.8281 18.3403 50.8297C16.7901 50.8297 15.3976 50.2587 14.5962 49.233C13.8428 48.2701 13.2534 46.5097 14.6334 43.5459C14.0882 43.1091 12.8488 41.8165 13.8211 39.7977C13.8475 39.7434 13.8863 39.7 13.9376 39.6681C13.9888 39.6356 14.0448 39.62 14.1053 39.62H19.3172C19.3568 39.6239 19.3941 39.634 19.4298 39.6511C19.4648 39.6689 19.4966 39.6922 19.523 39.7209C19.5494 39.7496 19.5704 39.783 19.5844 39.8194C19.5992 39.8567 19.6061 39.8947 19.6061 39.9343C19.6061 39.9738 19.5992 40.0119 19.5844 40.0483C19.5704 40.0856 19.5494 40.1181 19.523 40.1476C19.4966 40.1763 19.4648 40.1996 19.4298 40.2167C19.3941 40.2345 19.3568 40.2446 19.3172 40.2477H14.3158C14.2568 40.3742 14.2094 40.5053 14.1745 40.6403C14.1395 40.7761 14.1162 40.9126 14.1061 41.0523C14.096 41.1919 14.0983 41.3308 14.1139 41.4697C14.1286 41.6086 14.1566 41.7444 14.1962 41.8786C14.2366 42.012 14.2886 42.1416 14.3515 42.2657C14.4152 42.3899 14.4898 42.5078 14.5744 42.6187C14.6598 42.7297 14.7538 42.8321 14.8579 42.926C14.9612 43.0191 15.073 43.1029 15.1918 43.1766C15.2252 43.1968 15.2547 43.2224 15.2788 43.2542C15.3029 43.2852 15.3207 43.3194 15.3316 43.3574C15.3425 43.3954 15.3464 43.4342 15.3433 43.4737C15.3402 43.5125 15.3293 43.5498 15.3122 43.5855C14.2172 45.8099 14.1426 47.6277 15.0932 48.8349C15.9848 49.9739 17.7671 50.4511 19.6325 50.0484C19.7226 50.0329 26.8963 48.9087 35.1362 44.2201C35.1735 44.1992 35.2131 44.186 35.2551 44.1813C35.2978 44.1767 35.3389 44.1798 35.3801 44.1922C35.4205 44.2038 35.4578 44.2232 35.4904 44.2504C35.5238 44.2768 35.5502 44.3093 35.5696 44.3466ZM50.6027 43.061C50.0466 46.7611 52.5233 53.3512 56.491 58.7311C56.5159 58.7644 56.533 58.8017 56.543 58.842C56.5531 58.8824 56.5547 58.9227 56.5493 58.9638C56.543 59.0049 56.5291 59.043 56.5073 59.0786C56.4864 59.1143 56.4584 59.1438 56.425 59.1686C56.3916 59.1935 56.3551 59.2105 56.3147 59.2199C56.2743 59.2299 56.234 59.2323 56.1928 59.2261C56.1516 59.2199 56.1136 59.2059 56.0779 59.1849C56.0421 59.1632 56.0126 59.1361 55.987 59.1035C51.8639 53.5149 49.3942 46.879 49.9829 42.9663C50.1732 41.6978 51.2201 39.3516 52.232 37.083C52.9325 35.515 53.6556 33.8942 54.0431 32.7397C54.0416 32.7312 54.0416 32.7219 54.0431 32.7133C54.1021 32.5799 54.1588 32.4441 54.2155 32.3083H49.4509C49.4595 32.3805 49.4447 32.4464 49.4075 32.5077C49.0184 33.1563 48.5765 33.7654 48.0802 34.3364C47.9684 34.7732 47.3378 37.0108 45.9468 37.7153C45.668 37.8604 45.3706 37.9333 45.056 37.9341C44.74 37.9294 44.4378 37.8635 44.1497 37.7347C42.9141 37.2056 43.0392 35.9347 43.2737 35.3288C43.2908 35.2931 43.3141 35.262 43.3436 35.2349C43.3723 35.2077 43.4057 35.1868 43.443 35.172C43.4803 35.1581 43.5183 35.1511 43.5587 35.1511C43.5983 35.1511 43.6371 35.1581 43.6737 35.1728C43.7109 35.1875 43.7443 35.2085 43.7731 35.2356C43.8026 35.2636 43.8251 35.2946 43.8422 35.3311C43.8593 35.3668 43.8694 35.4048 43.8725 35.4444C43.8748 35.4839 43.8701 35.5227 43.8585 35.5607C43.8119 35.6787 43.4313 36.7354 44.3928 37.1489C44.5916 37.2482 44.8029 37.2979 45.025 37.2979C45.2479 37.2979 45.4591 37.2482 45.6579 37.1489C46.9153 36.5127 47.476 34.1394 47.4822 34.1153C47.4931 34.0672 47.514 34.0245 47.5459 33.9865C48.0056 33.4589 48.4196 32.8972 48.7877 32.3021H43.8119C43.7847 32.3029 43.7575 32.299 43.7311 32.2913C43.2442 32.1469 42.786 31.939 42.3557 31.669C41.9263 31.3982 41.5403 31.0755 41.2001 30.6992C41.1403 30.762 41.0673 30.7946 40.9811 30.7977H39.6228C38.6862 32.3634 37.5671 33.4217 36.2662 33.4217H36.1831C35.7451 33.6824 33.7741 34.8128 31.8977 34.8128C31.7642 34.8128 31.6282 34.8128 31.4947 34.7934C31.1599 34.9478 30.8081 35.0277 30.4392 35.0339C30.3655 35.0339 30.2925 35.0293 30.2202 35.0184L10.1088 33.9384C10.1314 33.9532 10.1508 33.971 10.1686 33.9904C10.915 34.9726 13.0981 35.0386 13.8778 34.9788C13.9252 34.975 13.9718 34.9819 14.016 34.999C14.0611 35.0161 14.0999 35.0425 14.1325 35.0774C14.1651 35.1123 14.1884 35.1526 14.2024 35.1984C14.2164 35.2442 14.2203 35.2907 14.2125 35.3381C14.1232 35.9502 13.9935 37.7153 14.4059 38.509C14.4245 38.5462 14.4362 38.585 14.4401 38.6269C14.4439 38.6681 14.4401 38.7084 14.4276 38.7488C14.4152 38.7883 14.3958 38.824 14.3694 38.8558C14.343 38.8884 14.3111 38.914 14.2739 38.9334C14.2288 38.959 14.1799 38.9714 14.1271 38.9706C14.0696 38.9706 14.0152 38.9551 13.9655 38.9256C13.9158 38.8962 13.877 38.8558 13.849 38.8046C13.3831 37.9294 13.4724 36.342 13.5446 35.6197C12.6694 35.6352 10.5515 35.5367 9.66694 34.369C9.64209 34.3357 9.62422 34.2992 9.61413 34.2588C9.60326 34.2193 9.60093 34.1789 9.60714 34.1378C9.61257 34.0967 9.62578 34.0579 9.64675 34.0222C9.66772 33.9865 9.6949 33.9563 9.72829 33.9314C9.72829 33.9314 9.74382 33.9314 9.75004 33.9206L5.90731 33.7126C5.80169 33.7126 3.23729 33.6405 2.98566 32.0329C0.660457 31.4797 0.471737 28.9007 0.460865 28.6711C-0.0400565 23.8514 -0.132474 19.024 0.182834 14.1881C0.248847 12.4734 1.76637 11.9156 2.31155 11.8504L2.63075 11.793C2.89169 11.4283 3.7716 10.4616 5.96867 10.1396C6.04089 10.1396 10.4878 9.53602 17.211 9.21714C21.2922 3.108 30.0408 -0.257683 36.1482 0.0154206C44.3509 0.385506 51.356 4.38973 54.9339 10.7324L55.8425 10.6517C55.8045 10.4104 55.8115 10.1707 55.8627 9.93248C55.9148 9.69352 56.008 9.47317 56.1431 9.26912C56.4273 8.89515 56.8723 8.69886 57.4564 8.68334H57.52C59.5874 8.68334 59.7474 11.3624 59.8654 13.3245C60.1109 17.3924 60.0208 20.6231 59.5936 23.1989C58.9871 26.8781 57.9953 29.651 55.0372 31.9475C54.9036 32.2866 54.7654 32.6233 54.6209 32.9515C54.2248 34.1347 53.5259 35.6919 52.7943 37.339C51.8095 39.5696 50.7797 41.8755 50.6027 43.061ZM56.6091 17.425L48.7652 18.252C48.5105 18.4103 48.234 18.4732 47.9358 18.4398L46.4027 18.4972C46.1759 20.1397 45.7954 21.7465 45.2611 23.3169C44.7267 24.8872 44.048 26.3932 43.2255 27.8339C43.4259 28.0931 43.6667 28.3072 43.9486 28.4756C44.2297 28.6432 44.5326 28.7541 44.8564 28.8069C45.7325 28.9931 48.5159 29.0257 50.5367 29.0257C50.525 28.9651 50.5312 28.9062 50.5545 28.8488C51.1875 27.2978 51.297 25.9331 50.8566 25.1045C50.7409 24.8849 50.5825 24.7026 50.3806 24.5567C50.1794 24.4116 49.9565 24.3185 49.7111 24.2774C46.8493 23.6652 46.1223 26.283 46.0936 26.3947C46.0851 26.4366 46.068 26.4754 46.0431 26.5103C46.0175 26.5452 45.9872 26.5739 45.9499 26.5964C45.9134 26.6189 45.8738 26.6337 45.8311 26.6399C45.7884 26.6461 45.7465 26.6438 45.7045 26.6321C45.6626 26.6213 45.6253 26.6026 45.5911 26.5763C45.557 26.5491 45.5298 26.5173 45.5096 26.4793C45.4886 26.442 45.4762 26.4017 45.4715 26.3582C45.4676 26.3156 45.4723 26.2737 45.4855 26.2326C45.4855 26.2 46.398 22.9282 49.8431 23.6629C50.0078 23.6939 50.167 23.7436 50.3208 23.8111C50.4745 23.8778 50.619 23.9616 50.7541 24.0617C50.8892 24.161 51.0112 24.2751 51.1207 24.4023C51.2302 24.5295 51.3234 24.6669 51.4018 24.8158C51.9322 25.8128 51.8398 27.3087 51.1502 29.0303C51.9276 29.0303 52.5124 29.0303 52.698 29.0303C52.9916 28.8945 54.6691 28.0108 56.0988 25.0626C56.1804 24.5815 56.7885 20.4547 56.6091 17.425ZM47.9264 17.8121H47.9598C48.3101 17.83 48.4149 17.7493 48.4258 17.7268V13.9235C42.9669 10.8984 36.6491 10.0613 33.7259 9.84248C34.0366 10.1016 34.289 10.4073 34.4847 10.7611C34.6796 11.1149 34.8039 11.492 34.8582 11.8915C35.544 17.013 35.5968 22.1414 35.0182 27.2761C34.6283 30.6464 33.7655 32.9624 32.4538 34.1696C34.1771 33.9508 35.916 32.8732 35.9354 32.8576H35.9595C38.1231 31.7288 38.3685 28.2188 38.3685 28.1838L38.8066 20.8287C38.857 18.1799 41.3484 18.0682 41.3725 18.0682L47.9264 17.8121ZM57.9169 16.0362L57.5946 11.1545L45.9429 12.0296C46.9588 12.4502 47.9451 12.9296 48.9034 13.4689C48.9531 13.4968 48.992 13.5348 49.0207 13.5837C49.0494 13.6326 49.0634 13.6853 49.0634 13.742V17.5918L56.8786 16.767C57.9169 16.6072 57.9169 16.0432 57.9169 16.0362ZM36.1195 0.643093C35.7451 0.628351 35.3599 0.623696 34.9677 0.643093C32.8017 1.06982 27.9711 2.70999 23.4124 9.04179C25.7663 9.01386 28.2709 9.04179 30.8571 9.12093C30.9122 9.12093 30.9689 9.12093 31.0302 9.13567C31.33 9.11007 31.629 9.11472 31.928 9.14886C31.9661 9.13412 32.0057 9.12636 32.0461 9.12714C36.3423 9.27998 40.5159 10.0729 44.5675 11.5067L54.2272 10.7805C50.723 4.77455 43.9921 0.997661 36.1195 0.643093ZM18.0009 9.1861C19.5689 9.1186 21.2534 9.06817 23.0248 9.04179C26.2346 4.50766 29.5764 2.34068 31.8364 1.31266C32.3334 1.09387 32.7978 0.907661 33.2265 0.761799C27.8135 1.42671 21.4258 4.39205 18.0009 9.1861ZM3.72578 11.6114C5.61142 11.312 9.14583 10.8092 12.9233 10.5904C17.8347 10.3041 25.0541 10.1528 25.4883 10.1528C25.736 10.1334 25.983 10.1381 26.2299 10.1691C26.4769 10.1994 26.7177 10.2545 26.953 10.3336C27.1883 10.4135 27.4135 10.5159 27.6286 10.6408C27.843 10.7665 28.0426 10.9124 28.2274 11.0784C30.0144 12.5852 30.9207 15.625 30.9207 20.1133C30.9207 25.0346 30.3802 28.6734 29.3178 30.9351C28.865 31.8971 28.4029 32.4092 28.0612 32.6846L30.4959 32.8033C31.5141 31.8607 32.1626 29.0714 32.3288 28.0504C33.6669 19.8045 32.5765 11.5633 32.5656 11.4827C32.401 10.1288 31.4178 9.82929 31.0194 9.76334C30.9976 9.76567 30.9759 9.76567 30.9534 9.76334H30.8555C22.5643 9.47239 14.2987 9.80446 6.05798 10.7611C5.21224 10.8581 4.43484 11.142 3.72578 11.6114ZM3.72578 31.5146L6.1038 29.3717C6.16593 29.3151 6.23893 29.2879 6.32281 29.2902L18.5507 29.5657C18.5934 29.568 18.6346 29.5773 18.6734 29.5944C20.4402 30.4106 22.1472 31.3362 23.7952 32.3696H27.3995C27.6776 32.2432 30.2839 30.7775 30.2839 20.1219C30.2839 14.7746 28.9411 12.5177 27.8158 11.568C26.6905 10.6191 25.5714 10.7852 25.5605 10.7875H25.5147C25.4401 10.7875 17.9815 10.9295 12.9536 11.2251C9.41687 11.4415 5.90265 11.8558 2.41174 12.4672H2.38999C2.37679 12.4672 0.868591 12.686 0.811121 14.2168C0.500472 19.0248 0.595997 23.8251 1.09847 28.6168C1.1008 28.6284 1.1008 28.6401 1.09847 28.6517C1.09847 28.7549 1.19011 31.3788 3.72578 31.5216V31.5146ZM18.4699 30.2026L6.4261 29.9288L4.60181 31.5627L22.7095 32.427C20.8697 31.3176 18.8357 30.3687 18.4614 30.2003L18.4699 30.2026ZM31.2974 34.2092C31.452 34.1324 31.598 34.0424 31.7354 33.9384C32.6643 33.2425 33.875 31.5107 34.3744 27.2016C34.946 22.1259 34.8939 17.0572 34.2191 11.9947C34 10.7083 33.2359 10.1443 32.5237 9.9061C32.7101 10.1148 32.8592 10.3468 32.9718 10.6028C33.0836 10.8589 33.1535 11.1258 33.1807 11.4043C33.1807 11.4827 34.2928 19.8139 32.9423 28.1528C32.9136 28.3173 32.2674 32.1842 30.7942 33.3697C30.7359 33.4155 30.6707 33.4388 30.5969 33.4395H30.5814L3.8182 32.1508H3.66055C4.05429 33.026 5.89411 33.0958 5.91586 33.0958L30.2575 34.4086H30.2987C30.6489 34.4396 30.979 34.3729 31.2889 34.2069L31.2974 34.2092ZM42.7697 18.6307L41.3904 18.6788C41.3112 18.6788 39.4698 18.7789 39.4302 20.8349L38.9813 28.2141C38.9813 28.3413 38.8066 30.7993 37.449 32.4247C40.2495 30.5153 42.1655 22.309 42.7611 18.6283L42.7697 18.6307ZM40.8273 30.1825C44.6157 25.6251 45.5725 19.9752 45.7635 18.5251L43.4026 18.6105C43.2644 19.4678 42.1476 26.0797 39.9715 30.1825H40.8273ZM43.8585 31.6876H54.3584C57.3935 29.4694 58.3805 26.7555 58.9855 23.1027C59.4033 20.5726 59.4888 17.3877 59.248 13.368C59.1144 11.1521 58.8908 9.31722 57.5247 9.31722H57.4851C57.3267 9.30558 57.1737 9.32886 57.0269 9.3886C56.8793 9.44757 56.7527 9.53602 56.6463 9.65395C56.5594 9.79748 56.5003 9.9511 56.4708 10.1164C56.4405 10.2808 56.4421 10.4453 56.4732 10.6098L57.8532 10.5051C57.9402 10.4989 58.0171 10.5237 58.0831 10.5819C58.1491 10.6401 58.1848 10.713 58.1903 10.8007L58.5452 16.0059C58.5452 16.054 58.5801 17.0184 57.2311 17.3396C57.4369 20.6207 56.752 25.0145 56.7209 25.2138C56.7162 25.2433 56.7077 25.272 56.6945 25.2992C55.017 28.7983 52.9721 29.6122 52.8821 29.6448C52.8479 29.6564 52.8129 29.6634 52.7772 29.6642C52.6832 29.6642 51.8398 29.6751 50.723 29.6751C48.6666 29.6751 45.6867 29.6378 44.7205 29.4345C44.3664 29.3694 44.0309 29.2499 43.7148 29.0761C43.3995 28.9023 43.1191 28.6827 42.8753 28.4174C42.4839 29.0427 42.0606 29.6448 41.6047 30.2244C41.9053 30.5673 42.247 30.8621 42.6299 31.1096C43.0127 31.3571 43.422 31.5472 43.8585 31.6807V31.6876Z" fill="url(#paint0_linear_9_197)"/>
<defs>
<linearGradient id="paint0_linear_9_197" x1="0" y1="32" x2="60" y2="32" gradientUnits="userSpaceOnUse">
<stop stop-color="#0CBAF1"/>
<stop offset="1" stop-color="#E95CE9"/>
</linearGradient>
</defs>
</svg>

<svg xmlns="http://www.w3.org/2000/svg" width="60" height="64" fill="none"><path fill="url(#a)" d="M35.57 44.347a.306.306 0 0 1 .034.243.322.322 0 0 1-.152.194 54.796 54.796 0 0 1-9.445 4.239c1.533 1.717.957 9.936.468 14.695a.305.305 0 0 1-.101.202.316.316 0 0 1-.212.08h-.03a.318.318 0 0 1-.29-.354c1.338-13.06-.284-14.217-.398-14.289a.304.304 0 0 1-.186-.094 39.282 39.282 0 0 1-5.514 1.413c-.462.1-.93.152-1.404.154-1.55 0-2.942-.571-3.744-1.597-.753-.963-1.343-2.723.037-5.687-.545-.437-1.784-1.73-.812-3.748a.309.309 0 0 1 .117-.13.306.306 0 0 1 .167-.048h5.212c.04.004.077.014.113.031a.31.31 0 0 1 .176.283.313.313 0 0 1-.289.313h-5.001a2.276 2.276 0 0 0-.202 1.223 2.293 2.293 0 0 0 1.078 1.707.308.308 0 0 1 .14.18.326.326 0 0 1-.02.229c-1.095 2.224-1.17 4.042-.219 5.249.892 1.139 2.674 1.616 4.54 1.213.09-.015 7.263-1.14 15.503-5.828a.312.312 0 0 1 .354.03c.034.027.06.06.08.097Zm15.033-1.286c-.556 3.7 1.92 10.29 5.888 15.67a.322.322 0 0 1 .058.233.306.306 0 0 1-.124.205.31.31 0 0 1-.347.016.335.335 0 0 1-.091-.082c-4.123-5.588-6.593-12.224-6.004-16.137.19-1.268 1.237-3.614 2.249-5.883.7-1.568 1.424-3.189 1.811-4.343a.078.078 0 0 1 0-.027c.06-.133.116-.269.172-.405h-4.764a.304.304 0 0 1-.044.2c-.389.648-.83 1.257-1.327 1.828-.112.437-.742 2.675-2.133 3.38a1.914 1.914 0 0 1-.891.218 2.28 2.28 0 0 1-.906-.2c-1.236-.528-1.11-1.8-.876-2.405a.306.306 0 0 1 .07-.094.309.309 0 0 1 .33-.062.31.31 0 0 1 .168.158.318.318 0 0 1 .017.23c-.047.118-.428 1.174.534 1.588.199.1.41.149.632.149.223 0 .434-.05.633-.15 1.257-.635 1.818-3.009 1.824-3.033a.3.3 0 0 1 .064-.129c.46-.527.874-1.089 1.242-1.684h-4.976a.261.261 0 0 1-.08-.01 5.54 5.54 0 0 1-2.532-1.593.307.307 0 0 1-.219.099h-1.358c-.937 1.565-2.056 2.624-3.357 2.624h-.083c-.438.26-2.409 1.39-4.285 1.39-.134 0-.27 0-.403-.019a2.597 2.597 0 0 1-1.056.24c-.073 0-.146-.004-.219-.015l-20.111-1.08a.317.317 0 0 1 .06.052c.746.983 2.93 1.049 3.709.989a.312.312 0 0 1 .324.22.303.303 0 0 1 .01.14c-.089.611-.219 2.376.194 3.17a.329.329 0 0 1 .022.24.313.313 0 0 1-.154.184.313.313 0 0 1-.308-.008.312.312 0 0 1-.117-.12c-.466-.876-.377-2.463-.304-3.185-.876.015-2.993-.083-3.878-1.251a.307.307 0 0 1-.06-.231.306.306 0 0 1 .121-.207s.016 0 .022-.01l-3.843-.208c-.105 0-2.67-.072-2.921-1.68C.66 31.48.472 28.9.46 28.67c-.501-4.82-.593-9.647-.278-14.483.066-1.715 1.583-2.272 2.129-2.338l.319-.057c.26-.365 1.14-1.331 3.338-1.653.072 0 4.519-.604 11.242-.923C21.292 3.108 30.041-.258 36.148.015c8.203.37 15.208 4.375 18.786 10.717l.909-.08a1.95 1.95 0 0 1 .3-1.383c.284-.374.73-.57 1.313-.586h.064c2.067 0 2.227 2.68 2.345 4.642.246 4.067.156 7.298-.271 9.874-.607 3.68-1.599 6.452-4.557 8.748-.133.34-.272.676-.416 1.005-.396 1.183-1.095 2.74-1.827 4.387-.984 2.23-2.014 4.537-2.191 5.722Zm6.006-25.636-7.844.827a1.263 1.263 0 0 1-.83.188l-1.532.057a25.95 25.95 0 0 1-3.178 9.337 2.576 2.576 0 0 0 1.631.973c.877.186 3.66.219 5.68.219a.306.306 0 0 1 .018-.177c.633-1.551.743-2.916.303-3.744a1.57 1.57 0 0 0-.476-.548 1.574 1.574 0 0 0-.67-.28c-2.862-.612-3.589 2.006-3.617 2.118a.3.3 0 0 1-.144.201.31.31 0 0 1-.245.036.31.31 0 0 1-.233-.274.313.313 0 0 1 .014-.125c0-.033.912-3.305 4.357-2.57a2.196 2.196 0 0 1 .911.399 2.211 2.211 0 0 1 .648.754c.53.997.438 2.493-.252 4.214h1.548c.294-.136 1.971-1.02 3.4-3.967.082-.482.69-4.608.511-7.638Zm-8.683.387h.034c.35.018.455-.063.466-.085v-3.803c-5.46-3.026-11.777-3.863-14.7-4.082a3.223 3.223 0 0 1 1.132 2.049c.686 5.122.739 10.25.16 15.385-.39 3.37-1.252 5.686-2.564 6.894 1.723-.22 3.462-1.297 3.481-1.312h.024c2.164-1.13 2.41-4.64 2.41-4.674l.438-7.355c.05-2.65 2.541-2.76 2.566-2.76l6.553-.257Zm9.99-1.776-.321-4.882-11.652.876c1.016.42 2.002.9 2.96 1.439a.308.308 0 0 1 .16.273v3.85l7.816-.825c1.038-.16 1.038-.724 1.038-.73ZM36.12.643c-.375-.015-.76-.02-1.152 0-2.166.427-6.997 2.067-11.556 8.399 2.354-.028 4.859 0 7.445.079.055 0 .112 0 .173.015.3-.026.599-.021.898.013a.31.31 0 0 1 .118-.022c4.296.153 8.47.946 12.522 2.38l9.66-.726C50.722 4.774 43.991.998 36.12.643ZM18 9.186c1.569-.067 3.253-.118 5.025-.144 3.21-4.534 6.551-6.701 8.811-7.73.497-.218.962-.404 1.39-.55-5.412.665-11.8 3.63-15.225 8.424ZM3.727 11.611c1.885-.299 5.42-.802 9.197-1.02 4.912-.287 12.131-.438 12.565-.438a3.648 3.648 0 0 1 1.465.18 3.676 3.676 0 0 1 1.274.745c1.787 1.507 2.694 4.547 2.694 9.035 0 4.922-.54 8.56-1.603 10.822-.453.962-.915 1.474-1.257 1.75l2.435.118c1.018-.942 1.667-3.732 1.833-4.753 1.338-8.245.248-16.487.237-16.567-.165-1.354-1.148-1.654-1.547-1.72a.312.312 0 0 1-.066 0h-.098a164.66 164.66 0 0 0-24.797.998 5.252 5.252 0 0 0-2.332.85Zm0 19.904 2.378-2.143a.302.302 0 0 1 .219-.082l12.228.276a.349.349 0 0 1 .122.028 45.738 45.738 0 0 1 5.122 2.776H27.4c.279-.127 2.885-1.592 2.885-12.248 0-5.347-1.343-7.604-2.468-8.554-1.125-.949-2.245-.783-2.255-.78h-.046c-.075 0-7.534.142-12.561.437-3.537.216-7.051.63-10.542 1.242H2.39c-.013 0-1.521.219-1.579 1.75a85.175 85.175 0 0 0 .287 14.4.088.088 0 0 1 0 .035c0 .103.092 2.727 2.628 2.87v-.007Zm14.744-1.312-12.044-.274-1.824 1.634 18.107.864c-1.84-1.11-3.873-2.058-4.248-2.227l.009.003Zm12.827 4.006c.155-.077.301-.167.438-.27.93-.697 2.14-2.428 2.64-6.737a62.081 62.081 0 0 0-.156-15.207c-.219-1.287-.983-1.85-1.695-2.089a2.626 2.626 0 0 1 .657 1.498c0 .079 1.112 8.41-.239 16.749-.028.164-.675 4.031-2.148 5.217a.315.315 0 0 1-.197.07h-.016L3.818 32.15h-.157c.393.876 2.233.946 2.255.946l24.341 1.313h.042c.35.03.68-.036.99-.202l.008.002ZM42.77 18.631l-1.38.048c-.079 0-1.92.1-1.96 2.156l-.449 7.38c0 .126-.174 2.584-1.532 4.21 2.8-1.91 4.717-10.116 5.312-13.797l.009.003Zm-1.943 11.552c3.789-4.558 4.745-10.208 4.937-11.658l-2.361.085c-.139.858-1.255 7.47-3.431 11.573h.855Zm3.032 1.505h10.5c3.035-2.219 4.021-4.932 4.627-8.585.417-2.53.503-5.715.262-9.735-.134-2.216-.357-4.05-1.723-4.05h-.04a1.005 1.005 0 0 0-.458.07 1.011 1.011 0 0 0-.38.266 1.34 1.34 0 0 0-.174.956l1.38-.105a.302.302 0 0 1 .23.077.307.307 0 0 1 .107.219l.355 5.205c0 .048.035 1.012-1.314 1.334.206 3.28-.479 7.675-.51 7.874a.304.304 0 0 1-.026.085c-1.678 3.5-3.723 4.313-3.813 4.346a.35.35 0 0 1-.105.02c-.094 0-.937.01-2.054.01-2.056 0-5.036-.037-6.002-.24a3.321 3.321 0 0 1-1.846-1.018 20.592 20.592 0 0 1-1.27 1.807 4.877 4.877 0 0 0 2.254 1.457v.007Z" opacity=".86"/><defs><linearGradient id="a" x1="0" x2="60" y1="32" y2="32" gradientUnits="userSpaceOnUse"><stop stop-color="#0CBAF1"/><stop offset="1" stop-color="#E95CE9"/></linearGradient></defs></svg>
